X:235
T:Take Thou My Hand and Lead Me
%%stretchlast false
M:4/4
L:1/4
K:C clef=C1
"^I"[Ceg] "^IV"[F,Cfa] "^I¹"[E,G,cg] "^ii"[D,F,Af]/ "^V7²"[D,G,Bf]/ | "^I"[C,G,ce]/ "^I¹"[E,G,ce]/ "^I²"[G,ce]2 "^V"[G,Bd] | "^I"[Cce]/ "^V/IV³"[B,Cce]/ "^IV¹"[A,Ccf]2 "^V"[G,B,dg]2 | "^I"[Ce]3 | [Ceg] "^IV"[F,Cfa] "^I¹"[E,G,cg] "^ii"[D,F,Af]/ "^V7²"[D,G,Bf]/ | "^I"[C,G,ce]/ "^I¹"[E,G,ce]/ "^I²"[G,ce]2 "^V"[G,Bd] | "^I"[Cce]/ "^V/IV³"[B,Cce]/ "^IV¹"[A,Ccf]2 "^V"[G,B,dg]2 | "^I"[Ce]3 | [Ce] "^vii"[B,d] "^V"[G,B,dg] "^ii"[Df^f] | "^ii7³"[CDfa] "^V¹"[B,Dg]3/2 "^V/V²"[A,D^fa]/ "^V"[G,Dgb] | "^vi¹"[CEac'] "^V²"[Dgb]2 "^II"[D,D^fa] | "^II7"[D,C^fa] "^V"[G,B,dg]3 | "^V7³"[F,B,dg] "^I¹"[E,Cgc'] "^V"[F,Cgb]/ "^IV"[F,Cfa]/ "^I"[C,Ceg] | "^I¹"[E,Ccg] "^IV"[F,Cfa] "^IV¹"[A,Cfa] "^I"[Ceg] | "^ii¹"[F,A,df] "^I²"[G,ce] "^iv"[G,cf] "^V7"[G,Bf] | "^V"[G,Bd] "^i"[Cc]3 |]
